icons/hubot.svg

<!--
  - The MIT License (MIT)
  -
  - Copyright (c) 2015-2024 Elior "Mallowigi" Boukhobza
  -
  - Permission is hereby granted, free of charge, to any person obtaining a copy
  - of this software and associated documentation files (the "Software"), to deal
  - in the Software without restriction, including without limitation the rights
  - to use, copy, modify, merge, publish, distribute, sublicense, and/or sell
  - copies of the Software, and to permit persons to whom the Software is
  - furnished to do so, subject to the following conditions:
  -
  - The above copyright notice and this permission notice shall be included in all
  - copies or substantial portions of the Software.
  -
  - THE SOFTWARE IS PROVIDED "AS IS", WITHOUT WARRANTY OF ANY KIND, EXPRESS OR
  - IMPLIED, INCLUDING BUT NOT LIMITED TO THE WARRANTIES OF MERCHANTABILITY,
  - FITNESS FOR A PARTICULAR PURPOSE AND NONINFRINGEMENT. IN NO EVENT SHALL THE
  - AUTHORS OR COPYRIGHT HOLDERS BE LIABLE FOR ANY CLAIM, DAMAGES OR OTHER
  - LIABILITY, WHETHER IN AN ACTION OF CONTRACT, TORT OR OTHERWISE, ARISING FROM,
  - OUT OF OR IN CONNECTION WITH THE SOFTWARE OR THE USE OR OTHER DEALINGS IN THE
  - SOFTWARE.
  -
  -->

<svg  version="1.1" xmlns="http://www.w3.org/2000/svg" viewBox="0 0 512 512" width="16px" height="16px">
  <path fill="#42A5F5" data-iconColor="Robots"
        d="M512,310.8287048v-73.1532288c-3.616394-38.626358-31.153656-38.2904968-73.1428833-36.5765991v146.306427C506.2682495,354.4113464,509.694458,327.8996582,512,310.8287048z M73.1428757,347.405304V201.098877C31.1536541,199.3849792,3.6164083,199.049118,0,237.6754761l0,73.1532288C2.3055527,327.8996582,5.7317491,354.4113464,73.1428757,347.405304z M18.2857246,438.8468018h475.4285583V512H18.2857246V438.8468018z M328.3199768,73.0807724c-11.5260925-94.6545944-130.8769226-100.1881943-144.6399994,0H328.3199768z M21.4819965,32.8603935c9.8521748-18.5911636,36.2703476-19.6752434,47.4384613-1.9466228c9.627388,15.2826786,1.7521744,34.7952271-14.0687141,40.4296417l0.0054398,111.4671173h-18.285778V71.3942566C21.5582657,66.1819839,13.3209982,48.2602463,21.4819965,32.8603935z M347.4286804,228.531189c0,21.0393372-22.9294434,34.2603149-41.1740417,23.7406311c-18.2445984-10.5196686-18.2445984-36.9616699,0-47.4813385S347.4286804,207.4917755,347.4286804,228.531189z M178.2546539,252.2718201c18.2445221,10.5196838,41.174057-2.7012939,41.174057-23.7406311c0-21.0394135-22.9295349-34.260376-41.1741333-23.7407074C160.0100708,215.3101501,160.0100708,241.7521515,178.2546539,252.2718201z M420.5714111,164.5222473v256.0362549H91.4285812V164.5222473c0-40.3991013,32.7496872-73.1531754,73.1428757-73.1531754h182.8570709C387.8217468,91.369072,420.5714111,124.1231461,420.5714111,164.5222473z M169.0911407,268.0987549c30.4074707,17.5326843,68.6231995-4.5021667,68.6231995-39.5675659c0-35.0654907-38.2157288-57.1003418-68.6231995-39.567627S138.6837463,250.56604,169.0911407,268.0987549z M347.4285278,329.1169739H164.5714569v36.5766296h182.8570709V329.1169739z M365.714325,228.531189c0-35.0654907-38.2156677-57.1003418-68.6231384-39.567627s-30.4074707,61.602478,0,79.1351929C327.4986572,285.6314392,365.714325,263.5965881,365.714325,228.531189z"/>
</svg>

<svg xmlns="http://www.w3.org/2000/svg" viewBox="0 0 512 512"><path fill="#42a5f5" d="M512 310.829v-73.154c-3.616-38.626-31.154-38.29-73.143-36.576v146.306c67.411 7.006 70.837-19.505 73.143-36.576M73.143 347.405V201.1C31.153 199.386 3.616 199.05 0 237.676v73.154c2.306 17.07 5.732 43.582 73.143 36.576m-54.857 91.442h475.428V512H18.286zM328.32 73.08c-11.526-94.655-130.877-100.188-144.64 0zM21.482 32.86c9.852-18.592 36.27-19.676 47.438-1.947 9.628 15.282 1.753 34.795-14.068 40.43l.005 111.467H36.571V71.394C21.558 66.182 13.321 48.26 21.482 32.86m325.947 195.67c0 21.04-22.93 34.26-41.174 23.74-18.245-10.519-18.245-36.96 0-47.48s41.174 2.7 41.174 23.74m-169.174 23.74c18.244 10.52 41.174-2.7 41.174-23.74s-22.93-34.26-41.174-23.74c-18.245 10.52-18.245 36.961 0 47.48m242.316-87.749V420.56H91.43V164.522c0-40.399 32.75-73.153 73.142-73.153H347.43c40.393 0 73.142 32.754 73.142 73.153M169.091 268.1c30.408 17.532 68.623-4.502 68.623-39.568s-38.215-57.1-68.623-39.567-30.407 61.602 0 79.135m178.338 61.018H164.57v36.577h182.86zm18.285-100.586c0-35.065-38.215-57.1-68.623-39.567s-30.407 61.602 0 79.135c30.408 17.532 68.623-4.502 68.623-39.568" data-iconColor="Robots"/></svg>
